X: 2
T: The Humours Of Glendart
R: jig
M: 6/8
L: 1/8
K: Dmaj
BAF AFD|FEF DFA|BAF AFD|FEE E2 A|BAF AFD|FEF DFA|dcB AFE|FDD D2 A:||BAF AFE|FEF DFA|BAF AFE|FEE E2 A|BAF AFE|FEF DFA|dcB AFE|FDD D2 A:||def d2 B|~A3 AFA|def d2 f|ede fdB|def d2 B|~A3 ABc|dcB AFE|FDD D2 A:||


Tune 45	Setting 12473

